public/home/cloud-2.svg

<svg width="556" height="147" viewBox="0 0 556 147" fill="none" xmlns="http://www.w3.org/2000/svg">
<g filter="url(#filter0_ddi_30_2)">
<path d="M503.842 108.026H26.7998L301.148 78.7446C320.646 76.6635 338.822 67.897 352.59 53.9341L374.12 32.0984C401.54 4.28977 448.045 10.948 466.56 45.3333C481.045 72.235 550.594 93.0748 522.301 104.609C520.765 105.235 519 105.844 516.99 106.426C512.739 107.658 508.268 108.026 503.842 108.026Z" fill="url(#paint0_linear_30_2)" shape-rendering="crispEdges"/>
<path d="M374.832 32.801C401.779 5.47145 447.484 12.015 465.68 45.8079C469.414 52.7426 476.635 59.1991 484.77 65.1301C492.918 71.0711 502.138 76.5918 509.934 81.5764C513.844 84.0769 517.395 86.4419 520.309 88.6721C523.235 90.9127 525.449 92.967 526.742 94.8333C528.03 96.6926 528.283 98.1732 527.711 99.4426C527.097 100.805 525.399 102.266 521.923 103.683C520.425 104.294 518.694 104.892 516.712 105.466C512.586 106.662 508.218 107.027 503.842 107.027H45.5898L301.254 79.7385C320.982 77.6329 339.372 68.7633 353.302 54.636L374.832 32.801Z" stroke="url(#paint1_linear_30_2)" stroke-width="2" shape-rendering="crispEdges"/>
</g>
<defs>
<filter id="filter0_ddi_30_2" x="-0.00019455" y="4.95911e-05" width="555.802" height="146.826" filterUnits="userSpaceOnUse" color-interpolation-filters="sRGB">
<feFlood flood-opacity="0" result="BackgroundImageFix"/>
<feColorMatrix in="SourceAlpha" type="matrix" values="0 0 0 0 0 0 0 0 0 0 0 0 0 0 0 0 0 0 127 0" result="hardAlpha"/>
<feOffset dy="4"/>
<feGaussianBlur stdDeviation="2"/>
<feComposite in2="hardAlpha" operator="out"/>
<feColorMatrix type="matrix" values="0 0 0 0 0 0 0 0 0 0 0 0 0 0 0 0 0 0 0.25 0"/>
<feBlend mode="normal" in2="BackgroundImageFix" result="effect1_dropShadow_30_2"/>
<feColorMatrix in="SourceAlpha" type="matrix" values="0 0 0 0 0 0 0 0 0 0 0 0 0 0 0 0 0 0 127 0" result="hardAlpha"/>
<feOffset dy="12"/>
<feGaussianBlur stdDeviation="13.4"/>
<feComposite in2="hardAlpha" operator="out"/>
<feColorMatrix type="matrix" values="0 0 0 0 0 0 0 0 0 0 0 0 0 0 0 0 0 0 0.25 0"/>
<feBlend mode="normal" in2="effect1_dropShadow_30_2" result="effect2_dropShadow_30_2"/>
<feBlend mode="normal" in="SourceGraphic" in2="effect2_dropShadow_30_2" result="shape"/>
<feColorMatrix in="SourceAlpha" type="matrix" values="0 0 0 0 0 0 0 0 0 0 0 0 0 0 0 0 0 0 127 0" result="hardAlpha"/>
<feOffset dx="9" dy="10"/>
<feGaussianBlur stdDeviation="9.4"/>
<feComposite in2="hardAlpha" operator="arithmetic" k2="-1" k3="1"/>
<feColorMatrix type="matrix" values="0 0 0 0 1 0 0 0 0 1 0 0 0 0 1 0 0 0 0.24 0"/>
<feBlend mode="normal" in2="shape" result="effect3_innerShadow_30_2"/>
</filter>
<linearGradient id="paint0_linear_30_2" x1="133.3" y1="99.636" x2="473.752" y2="81.2598" gradientUnits="userSpaceOnUse">
<stop stop-color="#D9D9D9" stop-opacity="0.8"/>
<stop offset="1" stop-color="#737373" stop-opacity="0.6"/>
</linearGradient>
<linearGradient id="paint1_linear_30_2" x1="198.003" y1="-8.66998" x2="213.53" y2="117.994" gradientUnits="userSpaceOnUse">
<stop stop-color="white" stop-opacity="0.8"/>
<stop offset="1" stop-color="#999999" stop-opacity="0.09"/>
</linearGradient>
</defs>
</svg>

<svg xmlns="http://www.w3.org/2000/svg" width="556" height="147" fill="none" viewBox="0 0 556 147"><g filter="url(#a)" shape-rendering="crispEdges"><path fill="url(#b)" d="M503.842 108.026H26.8l274.348-29.281a84.9 84.9 0 0 0 51.442-24.81l21.53-21.837c27.42-27.808 73.925-21.15 92.44 13.235 14.485 26.902 84.034 47.742 55.741 59.276-1.536.626-3.301 1.235-5.311 1.817-4.251 1.232-8.722 1.6-13.148 1.6"/><path stroke="url(#c)" stroke-width="2" d="M374.832 32.801c26.947-27.33 72.652-20.786 90.848 13.007 3.734 6.935 10.955 13.391 19.09 19.322 8.148 5.941 17.368 11.462 25.164 16.446 3.91 2.5 7.461 4.866 10.375 7.096 2.926 2.24 5.14 4.295 6.433 6.161 1.288 1.86 1.541 3.34.969 4.61-.614 1.362-2.312 2.823-5.788 4.24-1.498.611-3.229 1.209-5.211 1.783-4.126 1.196-8.494 1.561-12.87 1.561H45.59l255.664-27.288a85.9 85.9 0 0 0 52.048-25.103z"/></g><defs><linearGradient id="b" x1="133.3" x2="473.752" y1="99.636" y2="81.26" gradientUnits="userSpaceOnUse"><stop stop-color="#d9d9d9" stop-opacity=".8"/><stop offset="1" stop-color="#737373" stop-opacity=".6"/></linearGradient><linearGradient id="c" x1="198.003" x2="213.53" y1="-8.67" y2="117.994" gradientUnits="userSpaceOnUse"><stop stop-color="#fff" stop-opacity=".8"/><stop offset="1" stop-color="#999" stop-opacity=".09"/></linearGradient><filter id="a" width="555.802" height="146.826" x="0" y="0" color-interpolation-filters="sRGB" filterUnits="userSpaceOnUse"><feFlood flood-opacity="0" result="BackgroundImageFix"/><feColorMatrix in="SourceAlpha" result="hardAlpha" values="0 0 0 0 0 0 0 0 0 0 0 0 0 0 0 0 0 0 127 0"/><feOffset dy="4"/><feGaussianBlur stdDeviation="2"/><feComposite in2="hardAlpha" operator="out"/><feColorMatrix values="0 0 0 0 0 0 0 0 0 0 0 0 0 0 0 0 0 0 0.25 0"/><feBlend in2="BackgroundImageFix" result="effect1_dropShadow_30_2"/><feColorMatrix in="SourceAlpha" result="hardAlpha" values="0 0 0 0 0 0 0 0 0 0 0 0 0 0 0 0 0 0 127 0"/><feOffset dy="12"/><feGaussianBlur stdDeviation="13.4"/><feComposite in2="hardAlpha" operator="out"/><feColorMatrix values="0 0 0 0 0 0 0 0 0 0 0 0 0 0 0 0 0 0 0.25 0"/><feBlend in2="effect1_dropShadow_30_2" result="effect2_dropShadow_30_2"/><feBlend in="SourceGraphic" in2="effect2_dropShadow_30_2" result="shape"/><feColorMatrix in="SourceAlpha" result="hardAlpha" values="0 0 0 0 0 0 0 0 0 0 0 0 0 0 0 0 0 0 127 0"/><feOffset dx="9" dy="10"/><feGaussianBlur stdDeviation="9.4"/><feComposite in2="hardAlpha" k2="-1" k3="1" operator="arithmetic"/><feColorMatrix values="0 0 0 0 1 0 0 0 0 1 0 0 0 0 1 0 0 0 0.24 0"/><feBlend in2="shape" result="effect3_innerShadow_30_2"/></filter></defs></svg>
